svgs/sharp-solid/container-storage.svg

<svg xmlns="http://www.w3.org/2000/svg" viewBox="0 0 640 512"><!--! Font Awesome Pro 6.6.0 by @fontawesome - https://fontawesome.com License - https://fontawesome.com/license (Commercial License) Copyright 2024 Fonticons, Inc. --><path d="M608 416l0-320 32 0 0-64-32 0L32 32 0 32 0 96l32 0 0 320L0 416l0 64 32 0 576 0 32 0 0-64-32 0zM176 152l0 208 0 24-48 0 0-24 0-208 0-24 48 0 0 24zm112 0l0 208 0 24-48 0 0-24 0-208 0-24 48 0 0 24zm112 0l0 208 0 24-48 0 0-24 0-208 0-24 48 0 0 24zm112 0l0 208 0 24-48 0 0-24 0-208 0-24 48 0 0 24z"/></svg>

<svg xmlns="http://www.w3.org/2000/svg" viewBox="0 0 640 512"><!--! Font Awesome Pro 6.4.0 by @fontawesome - https://fontawesome.com License - https://fontawesome.com/license (Commercial License) Copyright 2023 Fonticons, Inc. --><path d="M608 416V96h32V32H608 32 0V96H32V416H0v64H32 608h32V416H608zM176 152V360v24H128V360 152 128h48v24zm112 0V360v24H240V360 152 128h48v24zm112 0V360v24H352V360 152 128h48v24zm112 0V360v24H464V360 152 128h48v24z"/></svg>
